justvector/simplenote.svg

<?xml version="1.0" encoding="iso-8859-1"?>
<!-- Generator: Adobe Illustrator 15.0.0, SVG Export Plug-In . SVG Version: 6.00 Build 0)  -->
<!DOCTYPE svg PUBLIC "-//W3C//DTD SVG 1.1//EN" "http://www.w3.org/Graphics/SVG/1.1/DTD/svg11.dtd">
<svg version="1.1" id="Layer_1" xmlns="http://www.w3.org/2000/svg" xmlns:xlink="http://www.w3.org/1999/xlink" x="0px" y="0px"
	 width="100px" height="100px" viewBox="0 0 100 100" style="enable-background:new 0 0 100 100;" xml:space="preserve">
<path id="Simplenote" d="M17.33,81.564C10.648,74.294,5.359,64.859,4.672,52.208c0-1.229,0-2.461,0-3.69
	c0.27-5.343,1.633-10.185,3.34-14.591c2.213-5.711,5.631-11.171,9.67-14.589c-0.004,2.732,0.068,5.342,0.35,7.031
	c0.855,5.128,3.713,10.744,7.209,14.238c2.832,2.832,6.629,4.777,10.547,6.854c7.818,4.149,15.254,7.813,23.027,11.952
	c5,2.666,10.146,5.959,11.6,11.251c2.057,7.484-2.307,14.425-5.801,18.105c-3.221,3.393-7.445,5.719-12.48,6.504
	c-1.992,0-3.984,0-5.977,0C33.813,93.893,24.039,88.863,17.33,81.564z M47.035,36.389c7.207,3.777,14.648,7.609,21.975,11.425
	c3.775,1.968,7.209,4.002,9.842,6.855c4.795,5.195,7.787,11.972,7.207,21.797c1.186-1.149,2.264-2.748,3.162-4.395
	c2.613-4.782,4.729-10.875,5.277-17.93c-0.029-0.206,0.035-0.313,0.174-0.352c0-2.344,0-4.688,0-7.031
	C91.576,22.029,74.75,7.18,51.078,5.274c-0.762,0-1.523,0-2.285,0c-4.625,0.774-9.131,2.095-11.776,5.1
	c-1.859,2.107-3.322,5.85-3.518,8.261C32.668,28.975,40.08,32.741,47.035,36.389z"/>
</svg>

<?xml version="1.0" encoding="UTF-8" standalone="no"?>
<!DOCTYPE svg PUBLIC "-//W3C//DTD SVG 1.1//EN" "http://www.w3.org/Graphics/SVG/1.1/DTD/svg11.dtd">
<svg width="100%" height="100%" viewBox="0 0 100 100" version="1.1" xmlns="http://www.w3.org/2000/svg" xmlns:xlink="http://www.w3.org/1999/xlink" xml:space="preserve" xmlns:serif="http://www.serif.com/" style="fill-rule:evenodd;clip-rule:evenodd;stroke-linejoin:round;stroke-miterlimit:2;">
    <path id="Simplenote" d="M17.33,81.564C10.648,74.294 5.359,64.859 4.672,52.208L4.672,48.518C4.942,43.175 6.305,38.333 8.012,33.927C10.225,28.216 13.643,22.756 17.682,19.338C17.678,22.07 17.75,24.68 18.032,26.369C18.887,31.497 33.162,27.681 36.658,31.175C39.49,34.007 31.87,45.384 35.788,47.461C43.606,51.61 51.042,55.274 58.815,59.413C63.815,62.079 68.961,65.372 70.415,70.664C72.472,78.148 68.108,85.089 64.614,88.769C61.393,92.162 57.169,94.488 52.134,95.273L46.157,95.273C33.813,93.893 24.039,88.863 17.33,81.564ZM47.035,36.389C54.242,40.166 61.683,43.998 69.01,47.814C72.785,49.782 76.219,51.816 78.852,54.669C83.647,59.864 86.639,66.641 86.059,76.466C87.245,75.317 88.323,73.718 89.221,72.071C91.834,67.289 93.95,61.196 94.498,54.141C94.469,53.935 94.533,53.828 94.672,53.789L94.672,46.758C91.576,22.029 74.75,7.18 51.078,5.274L48.793,5.274C44.168,6.048 39.662,7.369 37.017,10.374C35.158,12.481 33.695,16.224 33.499,18.635C32.668,28.975 40.08,32.741 47.035,36.389Z" style="fill:rgb(255,0,0);fill-rule:nonzero;"/>
</svg>
